static/img/logoMobile.svg

<svg xmlns="http://www.w3.org/2000/svg" width="93" height="11" viewBox="0 0 93 11" fill="none">
<path fill-rule="evenodd" clip-rule="evenodd" d="M0 10.7369L4.26911 0.190186H6.28987L10.559 10.7369H8.26756L7.35715 8.38732H3.14493L2.23452 10.7369H0ZM5.2502 2.95435L3.9261 6.34948H6.5743L5.2502 2.95435Z" fill="white"/>
<path fill-rule="evenodd" clip-rule="evenodd" d="M24.6752 6.68223L19.903 0.190186H17.8362V10.7369H20.0477V4.02978L24.9819 10.7369H26.8867V0.190186H24.6752V6.68223Z" fill="white"/>
<path fill-rule="evenodd" clip-rule="evenodd" d="M34.3005 10.7369L38.5687 0.190186H40.5913L44.8595 10.7369H42.5693L41.6572 8.38732H37.4459L36.5354 10.7369H34.3005ZM39.5499 2.95435L38.2287 6.34948H40.8742L39.5499 2.95435Z" fill="white"/>
<path fill-rule="evenodd" clip-rule="evenodd" d="M50.7648 0.190186H54.5953C57.6824 0.190186 59.8153 2.4658 59.8153 5.46113C59.8153 8.43059 57.6824 10.7369 54.5953 10.7369H50.7648V0.190186ZM52.9235 8.64082H54.5953C56.3641 8.64082 57.5565 7.35988 57.5565 5.46111C57.5565 3.59469 56.3641 2.28302 54.5953 2.28302H52.9235V8.64082Z" fill="white"/>
<path fill-rule="evenodd" clip-rule="evenodd" d="M69.3944 6.45742H74.0616V4.3953H69.3944V2.25554H74.6993V0.190186H67.229V10.7369H74.7711V8.67319H69.3944V6.45742Z" fill="white"/>
<path fill-rule="evenodd" clip-rule="evenodd" d="M86.5926 0.190186H88.6121L92.8803 10.7369H90.5916L89.678 8.38732H85.4682L84.5546 10.7369H82.3213L86.5926 0.190186ZM87.5707 2.95435L86.2495 6.34948H88.8935L87.5707 2.95435Z" fill="white"/>
</svg>

<svg xmlns="http://www.w3.org/2000/svg" width="93" height="11" fill="none"><path fill-rule="evenodd" clip-rule="evenodd" d="M0 10.737 4.27.19h2.02l4.269 10.547H8.268l-.91-2.35H3.144l-.91 2.35H0Zm5.25-7.783L3.926 6.35h2.648L5.25 2.954ZM24.675 6.682 19.903.19h-2.067v10.547h2.212V4.03l4.934 6.707h1.905V.19h-2.212v6.492ZM34.3 10.737 38.57.19h2.022l4.268 10.547h-2.29l-.912-2.35h-4.211l-.91 2.35H34.3Zm5.25-7.783L38.229 6.35h2.645L39.55 2.954ZM50.765.19h3.83c3.087 0 5.22 2.276 5.22 5.271 0 2.97-2.133 5.276-5.22 5.276h-3.83V.19Zm2.158 8.45h1.672c1.77 0 2.962-1.28 2.962-3.179 0-1.866-1.193-3.178-2.962-3.178h-1.672v6.358ZM69.394 6.457h4.668V4.395h-4.668v-2.14H74.7V.19h-7.47v10.547h7.542V8.673h-5.377V6.457ZM86.593.19h2.02l4.267 10.547h-2.288l-.914-2.35h-4.21l-.913 2.35H82.32L86.593.19Zm.978 2.764L86.249 6.35h2.645L87.57 2.954Z" fill="#fff"/></svg>
